flaticon/transport/garage.svg

<svg xmlns="http://www.w3.org/2000/svg" width="32" height="32" viewBox="0 0 24 24">
    <path d="M 22.398438 0 L 1.640625 0 C 0.71875 0 0 0.71875 0 1.640625 L 0 23.601562 C 0 23.839844 0.160156 24 0.398438 24 L 23.601562 24 C 23.839844 24 24 23.839844 24 23.601562 L 24 1.640625 C 24 0.71875 23.28125 0 22.398438 0 Z M 21.199219 11.601562 L 2.800781 11.601562 L 2.800781 10.800781 L 21.199219 10.800781 Z M 2.800781 12.398438 L 21.199219 12.398438 L 21.199219 13.199219 L 2.800781 13.199219 Z M 21.601562 8.398438 L 2.398438 8.398438 L 2.398438 6.800781 L 21.601562 6.800781 Z M 21.199219 9.199219 L 21.199219 10 L 2.800781 10 L 2.800781 9.199219 Z M 2.800781 23.199219 L 2.800781 14 L 21.199219 14 L 21.199219 23.199219 Z M 23.199219 23.199219 L 22 23.199219 L 22 9.199219 C 22.238281 9.199219 22.398438 9.039062 22.398438 8.800781 L 22.398438 6.398438 C 22.398438 6.160156 22.238281 6 22 6 L 2 6 C 1.761719 6 1.601562 6.160156 1.601562 6.398438 L 1.601562 8.800781 C 1.601562 9.039062 1.761719 9.199219 2 9.199219 L 2 23.199219 L 0.800781 23.199219 L 0.800781 1.640625 C 0.800781 1.160156 1.160156 0.800781 1.640625 0.800781 L 22.359375 0.800781 C 22.839844 0.800781 23.199219 1.160156 23.199219 1.640625 Z M 23.199219 23.199219"/>
    <path d="M17.601562 1.601562L6.398438 1.601562C6.160156 1.601562 6 1.761719 6 2L6 4.800781C6 5.039062 6.160156 5.199219 6.398438 5.199219L17.601562 5.199219C17.839844 5.199219 18 5.039062 18 4.800781L18 2C18 1.761719 17.839844 1.601562 17.601562 1.601562zM17.199219 4.398438L6.800781 4.398438 6.800781 2.398438 17.199219 2.398438zM17.398438 17.558594L16.546875 17.558594 15 15.398438C14.761719 15.039062 14.359375 14.839844 13.921875 14.839844L12.1875 14.839844C12.132812 14.8125 12.070312 14.800781 12 14.800781 11.929688 14.800781 11.867188 14.8125 11.8125 14.839844L10.078125 14.839844C9.640625 14.839844 9.238281 15.039062 9 15.398438L7.453125 17.558594 6.640625 17.558594C6.039062 17.558594 5.601562 18.039062 5.601562 18.601562L5.601562 20.160156C5.601562 20.761719 6.078125 21.199219 6.640625 21.199219L7.25 21.199219C7.429688 21.886719 8.058594 22.398438 8.800781 22.398438 9.542969 22.398438 10.171875 21.886719 10.347656 21.199219L13.652344 21.199219C13.828125 21.886719 14.457031 22.398438 15.199219 22.398438 15.941406 22.398438 16.570312 21.886719 16.75 21.199219L17.359375 21.199219C17.960938 21.199219 18.398438 20.761719 18.441406 20.160156L18.441406 18.601562C18.441406 18 17.960938 17.558594 17.398438 17.558594zM14.320312 15.800781L15.570312 17.558594 12.398438 17.558594 12.398438 15.601562 13.878906 15.601562C14.078125 15.601562 14.238281 15.679688 14.320312 15.800781zM9.601562 15.800781C9.71875 15.679688 9.878906 15.601562 10.039062 15.601562L11.601562 15.601562 11.601562 17.558594 8.386719 17.558594zM8.800781 21.601562C8.359375 21.601562 8 21.238281 8 20.800781 8 20.359375 8.359375 20 8.800781 20 9.238281 20 9.601562 20.359375 9.601562 20.800781 9.601562 21.238281 9.238281 21.601562 8.800781 21.601562zM15.199219 21.601562C14.761719 21.601562 14.398438 21.238281 14.398438 20.800781 14.398438 20.359375 14.761719 20 15.199219 20 15.640625 20 16 20.359375 16 20.800781 16 21.238281 15.640625 21.601562 15.199219 21.601562zM17.640625 20.160156C17.640625 20.28125 17.519531 20.398438 17.398438 20.398438L16.761719 20.398438C16.558594 19.71875 16.039062 19.199219 15.28125 19.199219 15.265625 19.199219 15.25 19.199219 15.238281 19.199219 15.222656 19.199219 15.210938 19.199219 15.199219 19.199219 14.457031 19.199219 13.828125 19.710938 13.652344 20.398438L10.398438 20.398438C10.199219 19.71875 9.601562 19.199219 8.839844 19.199219 8.832031 19.199219 8.824219 19.199219 8.816406 19.199219 8.8125 19.199219 8.804688 19.199219 8.800781 19.199219 8.058594 19.199219 7.429688 19.710938 7.25 20.398438L6.640625 20.398438C6.519531 20.398438 6.398438 20.28125 6.398438 20.160156L6.398438 18.601562C6.398438 18.480469 6.519531 18.359375 6.640625 18.359375L7.421875 18.359375C7.472656 18.386719 7.53125 18.398438 7.601562 18.398438L16.398438 18.398438C16.46875 18.398438 16.527344 18.386719 16.578125 18.359375L17.398438 18.359375C17.519531 18.359375 17.640625 18.480469 17.640625 18.601562zM17.640625 20.160156"/>
</svg>

<svg xmlns="http://www.w3.org/2000/svg" width="32" height="32" viewBox="0 0 24 24">
    <path d="M22.398 0H1.641A1.62 1.62 0 0 0 0 1.64v21.962c0 .238.16.398.398.398h23.204c.238 0 .398-.16.398-.398V1.64C24 .719 23.281 0 22.398 0zM21.2 11.602H2.801V10.8h18.398zm-18.398.796h18.398v.801H2.801zm18.8-4H2.399V6.801h19.204zM21.2 9.2V10H2.801v-.8zm-18.398 14V14h18.398v9.2zm20.398 0H22v-14c.238 0 .398-.16.398-.398V6.398c0-.238-.16-.398-.398-.398H2c-.238 0-.398.16-.398.398v2.403c0 .238.16.398.398.398v14H.8V1.641c0-.48.36-.84.84-.84h20.72c.48 0 .84.36.84.84zm0 0"/>
    <path d="M17.602 1.602H6.398C6.16 1.602 6 1.762 6 2v2.8c0 .24.16.4.398.4h11.204c.238 0 .398-.16.398-.4V2c0-.238-.16-.398-.398-.398zm-.403 2.796H6.801v-2h10.398zm0 0M17.398 17.559h-.851L15 15.399a1.273 1.273 0 0 0-1.078-.56h-1.735a.413.413 0 0 0-.187-.038.413.413 0 0 0-.188.039h-1.734c-.437 0-.84.2-1.078.558l-1.547 2.16h-.812c-.602 0-1.04.481-1.04 1.044v1.558c0 .602.477 1.04 1.04 1.04h.609c.18.687.809 1.198 1.55 1.198.743 0 1.372-.511 1.548-1.199h3.304c.176.688.805 1.2 1.547 1.2.742 0 1.371-.512 1.551-1.2h.61c.6 0 1.038-.437 1.081-1.039v-1.558c0-.602-.48-1.043-1.043-1.043zM14.32 15.8l1.25 1.758h-3.172v-1.957h1.48c.2 0 .36.078.442.199zm-4.718 0a.626.626 0 0 1 .437-.2h1.563v1.958H8.387zM8.8 21.6a.804.804 0 0 1-.801-.8c0-.442.36-.801.8-.801.438 0 .802.36.802.8 0 .438-.364.802-.801.802zm6.398 0a.807.807 0 0 1-.8-.8c0-.442.363-.801.8-.801.442 0 .801.36.801.8 0 .438-.36.802-.8.802zm2.442-1.44c0 .12-.121.237-.243.237h-.636c-.203-.68-.723-1.199-1.48-1.199H15.198c-.742 0-1.37.512-1.547 1.2h-3.254c-.199-.68-.796-1.2-1.558-1.2H8.8c-.742 0-1.371.512-1.551 1.2h-.61c-.12 0-.242-.118-.242-.239v-1.558a.26.26 0 0 1 .243-.243h.78c.052.028.11.04.18.04h8.797a.37.37 0 0 0 .18-.04h.82a.26.26 0 0 1 .243.243zm0 0"/>
</svg>
